X:1
T:Title
L:1/8
Q:1/4=100
M:4/4
K:Ab
V:1 treble nm="Grand Piano"
V:1
 C2 A2 G2 FF | F2 =EF G2 G2 | C2 B,C D2 D2 | F2 =EF G2 F2 | A2 A2 A2 A2 | GF=EF G2 G2 | %6
w: ????~?????~??? * * * *||||||
 B2 B2 BB B2 | B2 AB c2 c2 | cBAG AGF=E | CAAG G2 F2 | c2 cB =A2 AB | c2 e2 dc B2 | B2 BA G2 GA | %13
w: |||||||
 B2 c2 B2 A2 | A2 AG F2 FG | ABAG G4 | G2 GF =E2 C2 | A2 BB c2 c2 | c2 cB =A2 AB | c2 e2 dc B2 | %20
w: |||||||
 B2 BA G2 GA | B2 c2 B2 A2 | A2 AG F2 FG | ABAG G4 | G2 GF =E2 C2 | A2 GA G2 F2 |] %26
w: ||||||

